X:1
T:Ferdinando Carulli
T:I
T:Duo op. 34 n° 2
T:Rondò
T:II
T:Ferdinando Carulli - Duo op. 34 n° 2
T:Ferdinando Carulli - Duo op. 34 n° 2
T:Ferdinando Carulli - Duo op. 34 n° 2
T:Ferdinando Carulli - Duo op. 34 n° 2
T:Ferdinando Carulli - Duo op. 34 n° 2
T:Ferdinando Carulli - Duo op. 34 n° 2
T:Ferdinando Carulli - Duo op. 34 n° 2
T:Ferdinando Carulli - Duo op. 34 n° 2
T:Ferdinando Carulli - Duo op. 34 n° 2
T:Ferdinando Carulli - Duo op. 34 n° 2
T:Ferdinando Carulli - Duo op. 34 n° 2
T:Ferdinando Carulli - Duo op. 34 n° 2
T:Ferdinando Carulli - Duo op. 34 n° 2
T:Ferdinando Carulli - Duo op. 34 n° 2
Z:Ferdinando Carulli - Duo op. 34 n° 2
%%score [ ( 1 2 ) ( 3 4 ) ]
L:1/8
Q:1/4=48
M:3/4
K:G
V:1 treble-8 nm="Ch 1"
V:2 treble-8 
V:3 treble-8 nm="Ch 2"
V:4 treble-8 
V:1
"^Largo"!f!"^A" g>g d>d B>B | d/c/e/c/ AA A z | F,/D/A,/D/ F,/D/A,/D/ F,/D/A,/D/ | %3
 G,/D/B,/D/ G,/D/B,/D/ G,/D/B,/D/ |!pp! (^c'/d'/)b/g/ (c'/d'/)b/g/ g/f/e/d/ | %5
 [GB][GB] [GB][GB] [Ac][Ac] | gf{/f} ed{/d} cB | Bd/c/ AA A z |!mf! D/a/F/a/ D/a/F/a/ D/a/F/a/ | %9
 E/A/G/A/ E/A/G/A/ z2 | e/^d/e/d/ e/=d/^c/B/ z/ A/c/e/ | e/d/g/f/ f/d/A/F/ D z | %12
 [dfb][dfb] z/ d'/^c'/b/ ^a/b/c'/a/ | [dfb][dfb] z/ d'/^c'/b/ ^a/b/c'/a/ | %14
 [dfb][dfb] z/ d'/^c'/b/ a/g/b/g/ | f/g/^g/a/ [^ce][ce] [ce] z |"^B" [EA]2 [EG]2 [EG]2 | %17
 a/(b/4a/4)^g/a/ f/(=g/4f/4)^e/f/ d/(=e/4d/4)^c/d/ | [EA]2 [EG]2 [EG]2 | %19
 a/(b/4a/4)(^g/4a/4)(g/4a/4) f/(=g/4f/4)(^e/4f/4)(e/4f/4) d/(=e/4d/4)(^c/4d/4)(c/4d/4) | %20
!ff! [gb]>[gb] [fa]2 !fermata!z2 |!ff! [eg]>[eg] f2 !fermata!z2 | %22
!p!{/f} (3e/^d/e/(3g/a/b/ =d>f f/e/d/^c/ |!pp! d/A/F/A/ F/A/F/A/ G/A/G/A/ | %24
 F z z/4{/e} d/4(^c/4d/4)(e/4d/4)(c/4d/4) c/(a/4g/4)(f/4e/4)(d/4c/4) | d2 [dfd']2 z2 | %26
!p!"^C" [^dfb][dfb] z/ b/=d'/c'/{/c'} b/a/{/a}g/f/ | %27
 a/g/f/e/ E,/[GB]/[GB]/[GB]/ E,/[GB]/[GB]/[GB]/ | [^dfb][dfb] z/ b/=d'/c'/{/c'} b/a/{/a}g/f/ | %29
 a/g/f/e/ E/[GB]/[GB]/[GB]/ E/[GB]/[GB]/[GB]/ | [B,D] z [B,D] z [B,D] z | %31
 (3g/f/g/(3e/^d/e/ (3c/B/c/(3G/F/G/ (3E/^D/E/(3C/B,/C/ | [B,D] z [B,D] z [B,D] z | %33
 (3g/f/g/(3e/^d/e/ (3c/B/c/(3G/F/G/ (3E/^D/E/(3C/B,/C/ | z6 | %35
 (3D/=F/A/(3d/=f/a/ (3d'/^c'/d'/(3a/^g/a/ (3f/e/f/(3d/^c/d/ | z6 | %37
 (3E/G/B/(3e/g/b/ (3e'/^d'/e'/(3b/^a/b/ (3g/f/g/(3e/^d/e/ | %38
!ff! (6:4:6G/e/f/g/f/e/ (6:4:6G/e/f/g/f/e/ (6:4:6G/e/f/g/f/e/ | %39
 (3F/^d/^c/(3B/f/e/ (3d/a/g/(3f/=c'/b/ (3c'/b/a/(3a/g/f/ | %40
 (6:4:6G/e/f/g/f/e/ (6:4:6G/e/f/g/f/e/ (6:4:6G/e/f/g/f/e/ | ^d2 [dfb]2 !fermata!z2 || %42
[M:2/4][Q:1/4=120]"^Allegretto poco"!p!"^D" gg (a/g/)(f/g/) | bb (c'/b/)a/b/ | c'c' a/b/c'/^c'/ | %45
 d'>b g z |!pp! a>a ^g/a/b/g/ | a>a ^g/a/b/g/ | a/b/c'/b/ d'/c'/b/a/ | g/f/e/d/ ^c/d/e/f/ | %50
!p! gg a/g/f/g/ | bb c'/b/a/b/ | c'c' a/b/c'/^c'/ | d'>b g z | d'/c'/c'/c'/ (c'/b/)b/b/ | %55
 b/a/a/a/ (a/g/)g/g/ | f/e/c'/a/ a/g/{/a}g/f/ |!f! g/a/b/c'/ d'/b/c'/d'/ | e'/e/e'/d'/ c'/a/b/c'/ | %59
 d'/d/d'/c'/ b/g/a/b/ | e/c'/b/a/ a/g/{/a}g/f/ | g/a/b/c'/ d'/b/c'/d'/ | e'/e/e'/d'/ c'/a/b/c'/ | %63
 d'/d/d'/c'/ b/g/a/b/ | e/c'/b/a/ a/g/{/a}g/f/ | g z z/ g/g/g/ | fd'/c'/{/c'} b/a/{/a}g/f/ | %67
 g z z/ g/g/g/ | fd'/c'/{/c'} b/a/{/a}g/f/ | g/b/a/f/ g/b/a/f/ | g/b/a/f/ g/b/a/f/ | %71
 g/d/e/f/ g/a/b/c'/ |!f! d'/!8va(! g/a/b/ c'/d'/e'/f'/!8va)! | g2 [GBg]2 | [GBg]2 z2 || %75
"^E" G/d/B/d/ G/d/B/d/ | F/d/A/d/ F/d/A/d/ | E/^c/A/c/ E/c/A/c/ | D/E/F/G/ F/D/E/F/ | %79
 G/d/B/d/ G/d/B/d/ | F/d/A/d/ F/d/A/d/ | E/^c/A/c/ E/c/A/c/ | D/E/F/G/ F z | e/d/^c/B/ A/G/F/E/ | %84
 DF FD | e/d/^c/B/ A/G/F/E/ | DF A=c | BcBc | B z z2 | fed^c | d z z2 | g/f/{/f}e/d/ ^c/B/A/G/ | %92
 F/A/d/f/ a/f/{/f}e/d/ | g/f/{/f}e/d/ ^c/B/A/G/ | F/A/d/f/ a/f/{/f}e/^d/ | e/g/f/^d/ e/g/f/d/ | %96
 e/B/^c/^d/ e/f/g/b/ | a/f/g/e/ f/=d/e/^c/ | d z D/d/d/d/ | ^ca/g/{/g} f/e/d/c/ | d z D/d/d/d/ | %101
 ^ca/g/{/g} f/e/d/c/ | d/f/e/^c/ d/f/e/c/ | d/f/e/^c/ d/f/e/c/ | d/f/a/g/ f/a/=c'/b/ | %105
 c'2 z/ [fc']/[fc']/[fc']/ | [fc']2 z/ [fc']/[fc']/[fc']/ | c'/b/a/g/ f/g/a/b/ | %108
 c'/b/a/g/ f/g/a/b/ | c'/b/a/g/ f/d/e/!fermata!f/!D.S.! ||"^Minore"!p!"^F" G/B/G/B/ G/B/G/B/ | %111
 A/B/A/B/ A/B/A/B/ | G/B/G/B/ G/B/G/B/ | A/B/A/B/ A z |!f! g>b d'/b/a/g/ | f/e/^d/e/ ef/^g/ | %116
!p! a/g/a/b/ d'/c'/e/a/ | =g/f/e/f/ d z | a/g/f/e/ d/c/B/A/ | G2 [GB]2 | a/g/f/e/ d/c/B/A/ | %121
 G2 [GB]=f | e=f ef | e z z2 | BcdD | G z z2 | c'/b/a/g/ f/e/d/c/ | B/d/g/b/ d'/b/a/g/ | %128
 c'/b/a/g/ f/e/d/c/ | B/d/g/b/ d'/b/a/^g/ | a/c'/b/^g/ a/c'/b/g/ | a/e/f/^g/ a/b/c'/e'/ | %132
 d'/b/c'/a/ b/=g/a/f/ | g/A/B/A/ z2 |!p! G/B/G/B/ G/B/G/B/ | A/B/A/B/ A/B/A/B/ | %136
 G/B/G/B/ G/B/G/B/ | A/B/A/B/ A z | [d^g]2 z/ [dg]/[dg]/[dg]/ | [ea]2 z/ [ea]/[ea]/[ea]/ | %140
 [e^a]2 z/ [ea]/[ea]/[ea]/ | [fb]2 z/ [fb]/[fb]/[fb]/ | [f=c']2 z/ [fc']/[fc']/[fc']/ | %143
 [fc']2 z/ c'/c'/c'/ | c'/b/a/g/ f/g/a/b/ | c'/b/a/g/ f/g/a/b/ | c'/b/a/g/ f/g/a/b/!D.S.! |] %147
V:2
 G2 D2 B,2 | A,2 DD D z | F,A, F,A, F,A, | G,B, G,B, G,B, | G2 G2 D2 | G,2 G,2 G,2 | G,3 z z2 | %7
 D2 D2 D z | DF DF DF | EG EG E/F/E/D/ | ^C2 C2 A,2 | D2 D2 D z | BB z2 z2 | BB z2 z2 | BB z2 z2 | %15
 A,2 A,2 A, z | ^C2 C2 C2 | D2 D2 D2 | ^C2 C2 C2 | D2 D2 D2 | G>G D2 z2 | ^c>c d2 z2 | G2 A,2 A,2 | %23
 DF FF GG | F z D2 A,2 | D2 D2 z2 | BB z2 z2 | E,2 E,2 E,2 | BB z2 z2 | E,2 E2 E2 | %30
 G, z G, z G, z | E, z z2 z2 | G, z G, z G, z | E, z z2 z2 | _B, z B, z B,B, | D z z2 z2 | %36
 =C z C z C^D | E z z2 z2 | G2 G2 G2 | F z z2 z2 | G2 G2 G2 | F2 B2 z2 ||[M:2/4] G2 z2 | G2 z2 | %44
 D2 z2 | G2- G z | A,2 E,2 | A,2 E,2 | A, z z2 | x4 | G2 z2 | G2 z2 | D2 z2 | G2- G z | x4 | x4 | %56
 x4 | G2 z2 | x4 | x4 | x4 | x4 | x4 | x4 | x4 | G z z2 | D z z2 | G z z2 | D z z2 | GD GD | %70
 GD GD | G2 z2 | x/!8va(! x7/2!8va)! | g2 [G,B,D]2 | [G,B,D]2 z2 || GB GB | FA FA | EA EA | x4 | %79
 GB GB | FA FA | x4 | x4 | ^C2 z2 | x4 | ^C2 z2 | x4 | GA GA | G z z2 | FG AA, | D z z2 | A,2 A,2 | %92
 F2 D2 | A,2 A,2 | F2 D2 | x4 | x4 | x4 | D z D2 | A,2 A,2 | D z D2 | A,2 A,2 | DA, DA, | DA, DA, | %104
 D2 z2 | x4 | x4 | D z z2 | D z z2 | D z z2 || EE EE | FF FF | EE EE | FF F z | G2 z2 | x4 | x4 | %117
 D2 D z | D2 D2 | G,2 G,2 | D2 D2 | G,2 G,2 | cd cd | c z z2 | z2 z D | G z z2 | D2 D2 | B2 z2 | %128
 D2 D2 | B2 z2 | x4 | x4 | x4 | G2 G/F/E/^D/ | EE EE | FF FF | EE EE | FF F z | B2 z/ B/B/B/ | %139
 c2 z/ c/c/c/ | ^c2 z/ c/c/c/ | d2 z/ d/d/d/ | d2 z/ d/d/d/ | d2 z/ f/f/f/ | D z z2 | D z z2 | %146
 D z z2 |] %147
V:3
!f! G,/D/B,/D/ G,/D/B,/D/ G,/D/B,/D/ | F,/D/A,/D/ F,/D/A,/D/ F,/D/A,/D/ | a>a f>f d>d | %3
 c/B/e/d/ dd d2 |!pp! [GB][GB] [GB][GB] [Ac][Ac] | (^c'/d'/)b/g/ (c'/d'/)b/g/ g/f/e/d/ | Bd cB AG | %7
 GB/A/ FF F z |!mf! a>f d/e/f/g/ a/b/^c'/d'/ | d'/^c'/c'/c'/ c' z z2 | %10
{/a} g/f/{/a}g/f/{/a} g/f/e/d/ ^c/e/a/g/ | g/f/b/a/ [fa][fa] [fa] z | d/f/d/f/ d/f/d/f/ e/g/e/g/ | %13
 d/f/d/f/ d/f/d/f/ e/g/e/g/ | d/f/d/f/ d/f/d/f/ G/B/G/E/ | A2 AA A z | %16
!f! g/(a/4g/4)f/g/ e/(f/4e/4)^d/e/ ^c/(=d/4c/4)B/c/ | [FA]2 [FA]2 [FA]2 | %18
 g/(a/4g/4)(f/4g/4)(f/4g/4) e/(f/4e/4)(^d/4e/4)(d/4e/4) ^c/(=d/4c/4)(B/4c/4)(B/4c/4) | %19
 [FA]2 [FA]2 [FA]2 |!ff! ^c>c d2 !fermata!z2 |!ff! ^A>A B2 !fermata!z2 |!p! B[GB] A>A A/G/F/E/ | %23
!pp! F z z/{/e} d/^c/d/ c/a/g/e/ | d/A/F/A/ F/A/F/A/ G/A/G/A/ | A2 [Ad]2 z2 | %26
!p! B,/^D/F/D/ B,/D/F/D/ B,/D/F/D/ | E/G/B/e/ g/e/b/^a/ b/g/{/g}f/e/ | %28
 B,/^D/F/D/ B,/D/F/D/ B,/D/F/D/ | E/G/B/e/ g/e/b/^a/ b/g/{/g}f/e/ | %30
 (3=f/e/f/(3d/^c/d/ (3B/^A/B/(3G/^F/G/ (3=F/E/F/(3D/^C/D/ | [EG] z [EG] z C z | %32
 (3=f/e/f/(3d/^c/d/ (3B/^A/B/(3G/^F/G/ (3=F/E/F/(3D/^C/D/ | [EG] z [EG] z C z | %34
 (3^C/E/G/(3_B/^c/e/ (3g/e/c/(3B/G/E/ (3C/E/G/(3B/c/e/ | =f z [=FA] z [FA] z | %36
 (3^D/F/A/(3c/^d/f/ (3a/f/d/(3c/A/F/ (3D/F/A/(3c/d/f/ | g z [GB] z [GB] z | c>c B>B ^A>A | %39
 B z [AB] z [AB] z | c>c B>B ^A>A | B2 B2 !fermata!z2 ||[M:2/4]!p! G/d/B/d/ G/d/B/d/ | %43
 G/d/B/d/ G/d/B/d/ | F/d/A/d/ F/d/A/d/ | G/d/B/d/ G/d/B/d/ |!pp! c/e/c/e/ d/e/d/e/ | %47
 c/e/c/e/ d/e/d/e/ | e z z2 | z4 |!p! G/d/B/d/ G/d/B/d/ | G/d/B/d/ G/d/B/d/ | F/d/A/d/ F/d/A/d/ | %53
 G/d/B/d/ G/d/B/d/ | e/g/e/g/ d/f/d/f/ | c/e/c/e/ B/d/B/d/ | C/c/e/c/ c/B/B/A/ | G2 z2 | %58
!f! c/C/c/B/ A/F/G/A/ | B/B,/B/A/ G/B/c/d/ | C/e/d/c/ c/B/B/A/ | G2 z2 | c/C/c/B/ A/F/G/A/ | %63
 B/B,/B/A/ G/B/c/d/ | C/e/d/c/ c/B/B/A/ |!p! B/d/B/d/ B/d/B/d/ | c/d/c/d/ c/d/c/d/ | %67
 B/d/B/d/ B/d/B/d/ | c/d/c/d/ c/d/c/d/ | B/d/B/d/ B/d/B/d/ | B/d/B/d/ B/d/B/d/ | G2 z2 | %72
!f! G/G,/A,/B,/ C/D/E/F/ | G2 [GBg]2 | [GBg]2 z2 || b>b b/g/d'/b/ | aa a/b/^c'/d'/ | gg g/e/a/g/ | %78
 f/g/a/b/ a z | bb b/g/d'/b/ | aa a/b/^c'/d'/ | gg g/e/a/g/ | f/g/a/b/ a z | %83
 g/f/{/f}e/d/ ^c/B/A/G/ | F/A/d/f/ a/f/{/f}e/d/ | g/f/{/f}e/d/ ^c/B/A/G/ | F/A/d/f/ a/f/{/f}e/^d/ | %87
 e/f/e/^d/ e/g/f/d/ | e/B/^c/^d/ e/f/g/b/ | a/f/g/e/ f/=d/e/^c/ | d/^c/B/A/ G/F/E/D/ | %91
 e/d/^c/B/ A/G/F/E/ | DF FD | e/d/^c/B/ A/G/F/E/ | DF A=c | Bc Bc | B z z2 | fe d^c | %98
 d/A/F/A/ F/A/F/A/ | G/A/G/A/ G/A/G/A/ | F/A/F/A/ F/A/F/A/ | G/A/G/A/ G/A/G/A/ | %102
 F/A/G/A/ F/A/G/A/ | F/A/G/A/ F/A/G/A/ | F2 z2 | z/ D/F/A/ D z | z/ D/F/A/ D z | [Ad] z z2 | %108
 [Ad] z z2 | [Ad] z z2 || e>f a/g/{/g}f/e/ |{/f} e/^d/d/d/ d z/ B/ | e>f a/g/{/g}f/e/ | %113
{/f} e/^d/d/d/ d z | B,/D/B,/D/ B,/D/B,/D/ | C/E/C/E/ C/E/C/E/ | C/E/C/E/ C/E/^C/E/ | %117
 D/F/A/d/ D z |!f! c'/b/a/g/ f/e/d/c/ | B/d/g/b/ d'/b/a/g/ | c'/b/a/g/ f/e/d/c/ | %121
 B/d/g/b/ d'/b/a/g/ | a/c'/b/^g/ a/c'/b/g/ | a/e/f/^g/ a/b/c'/e'/ | d'/b/c'/a/ b/=g/a/f/ | %125
 g/f/e/d/ c/B/A/G/ | a/g/f/e/ d/c/B/A/ | G2 [GB]2 | a/g/f/e/ d/c/B/A/ | G2 [GB]=f | e=f ef | %131
 e z z2 | BcdD | G z z2 |!p! e>f a/g/{/g}f/e/ |{/f} e/^d/d/d/ d z/ B/ | e>f a/g/{/g}f/e/ | %137
{/f} e/^d/d/d/ d z |!f! z/ E,/^G,/B,/ E, z | z/ A,/C/E/ A, z | z/ F,/^A,/^C/ F, z | %141
 z/ B,/D/F/ B, z |!p! z/ D/F/A/ D z | z/ D/F/A/ D z | [Ad] z z2 | [Ad] z z2 | [Ad] z z2 |] %147
V:4
 G,B, G,B, G,B, | F,A, F,A, F,A, | A2 F2 D2 | G2 BB B2 | G,2 G,2 G,2 | G2 G2 D2 | G3 B, C^C | %7
 D2 FF F z | D2 D2 D2 | A,A, A, z z2 | A,2 A,2 A,2 | D2 D2 D z | dd dd ee | dd dd ee | %14
 dd dd G z/ E/ | D2 ^CC C z | A,2 A,2 A,2 | D2 D2 D2 | A,2 A,2 A,2 | D2 D2 D2 | ^C>C D2 z2 | %21
 ^A,>A, B,2 z2 | GE F2 z2 | F z D2 A,2 | dF FF GG | F2 F2 z2 | B,2 B,2 B,2 | E2 E,2 E,2 | %28
 B,2 B,2 B,2 | E2 E,2 E,2 | D3 z z2 | C z C z C z | D3 z z2 | C z C z C z | ^C z z2 C z | %35
 =f z D z D z | ^D z z2 D z | g z E z E z | C2 B,2 ^A,2 | B, z F z F z | C2 B,2 ^A,2 | %41
 B,2 B,2 z2 ||[M:2/4] GB GB | GB GB | FA FA | GB GB | cc dd | cc dd | c z z2 | x4 | GB GB | GB GB | %52
 FA FA | GB GB | ee dd | cc BB | C2 D2 | G,2 z2 | z/ C/ z z2 | z/ B,/ z z2 | C2 DD | G,2 z2 | %62
 z/ C/ z z2 | z/ B,/ z z2 | C2 DD | G,2 G,2 | A,2 A,2 | G,2 G,2 | A,2 A,2 | G,2 G,2 | G,2 G,2 | %71
 G,2 z2 | x4 | G2 [G,B,D]2 | [G,B,D]2 z2 || G2 G2 | D2 D2 | A,2 A,2 | D2 D z | G2 G2 | D2 D2 | %81
 A,2 A,2 | D2 D z | A,2 A,2 | F2 D2 | A,2 A,2 | F2 D2 | x4 | x4 | x4 | x4 | ^C2 z2 | x4 | ^C2 z2 | %94
 x4 | GA GA | G z z2 | FG AA, | DF FF | GG GG | FF FF | GG GG | FG FG | FG FG | F2 z2 | x4 | x4 | %107
 F z z2 | F z z2 | F z z2 || E,4 | F,2- F, z | E,4 | F,2- F, z | B,B, B,B, | CC CC | CC C^C | %117
 D2 D z | D2 D2 | B2 z2 | D2 D2 | B2 z2 | x4 | x4 | x4 | G2 z2 | D2 D2 | G,2 G,2 | D2 D2 | %129
 G,2 G,2 | cd cd | c z z2 | z2 z D | G z z2 | E,4 | F,2- F, z | E,4 | F,2- F, z | x4 | x4 | x4 | %141
 x4 | x4 | x4 | F z z2 | F z z2 | F z z2 |] %147

